X: 5992
T: Canavan's Weave
R: hornpipe
M: 4/4
K: Dmajor
|:ag|fd~d2 cdAG|FAdf gefd|cggf gecd|cggf g2ag|
fd~d2 cdAG|FAdf gefd|caaf gecd|eddc d2:|
|:ed|cggf gecd|cggf g2ag|fd~d2 ad~d2|fdad fdad|
cggf gecd|cggf g2ag|fgaf gecd|eddc d2:|

